X:124
T:score208
L:1/16
Q:1/4=96
M:3/4
I:linebreak $
K:G
 g4 g4 a2>b2 | a2f2 d8 | MG4 G6 FG | (A/G/F)(G/F/E) D8 |$ d4 d4 e2>=f2 | e2c2 A6 !turn!^f2 | %6
 (g<f)(a<g) (f<e)(d<c) a2>c2 | B<GF2 MG8 |] %8
